X:42
T: IN DER HEIMATH IST ES SCHOEN
N: B0528
O: Europa, Mitteleuropa, Deutschland
R: Wander -, Heimat - Lied
M: 3/4
L: 1/16
K: D
F,3G, | A,6F,2D3=C | B,8
B,2A,2 | G,6F,2G,3B, | A,8
F,3G, | A,6F,2D3C | C2B,2B,4
B,2D2 | =C6A,2^G,2A,2B,2 | B,2A,2A,3G,
F,3G, | A,6B,2C2D2 | B,8
D3B, | B,4A,4C2E2 | D8
D2C2B,2 | B,3A,A,4A,2C2E2 | D8

